public/logo/1.svg

<svg width="424" height="118" viewBox="0 0 424 118" fill="none" xmlns="http://www.w3.org/2000/svg">
<path d="M102.797 44.3787V86.4214H89.5211V44.3787H75.1384V31.1014H117.181V44.3787H102.797Z" fill="white"/>
<path d="M168.851 31.1176V63.023C168.851 77.827 155.832 86.4216 145.112 86.4216C135.243 86.4216 121.545 78.5083 121.545 62.8536V31.1176H133.881V62.8536C133.881 66.2563 135.073 68.979 137.54 71.0216C140.008 73.147 143.156 74.0843 145.112 74.0843C146.304 74.0843 147.665 73.7443 148.941 73.3176C150.388 72.723 151.833 71.9576 152.94 70.935C154.045 69.915 154.981 68.8096 155.577 67.5336C156.259 66.171 156.513 64.7243 156.513 63.023V31.1176H168.851Z" fill="white"/>
<path d="M221.889 58.7714C221.889 74.0047 209.464 86.4287 194.23 86.4287H173.892H173.212V31.114H173.382H194.23C209.464 31.114 221.889 43.454 221.889 58.7714ZM209.124 58.7714C209.124 54.7714 207.592 51.0274 204.784 48.134C201.976 45.326 198.146 43.794 194.146 43.794H186.488V73.6647H194.23C198.232 73.6647 201.976 72.1327 204.784 69.3234C207.592 66.5167 209.124 62.7714 209.124 58.7714Z" fill="white"/>
<path d="M239.548 86.4121H226.276V31.1068H239.548V86.4121Z" fill="white"/>
<path d="M299.213 58.77C299.213 74.0393 286.832 86.4207 271.563 86.4207C256.293 86.4207 243.911 74.0393 243.911 58.77C243.911 43.4993 256.293 31.1193 271.563 31.1193C286.832 31.1193 299.213 43.4993 299.213 58.77ZM287.659 58.77C287.659 54.478 286.008 50.434 282.953 47.3793C279.9 44.326 275.855 42.6753 271.563 42.6753C267.271 42.6753 263.225 44.326 260.172 47.3793C257.119 50.434 255.467 54.478 255.467 58.77C255.467 63.062 257.119 67.1073 260.172 70.1607C263.225 73.1313 267.271 74.8647 271.563 74.8647C275.855 74.8647 279.9 73.1313 282.953 70.1607C286.008 67.1073 287.659 63.062 287.659 58.77Z" fill="white"/>
<path d="M344.587 75.3144H359.746V86.425H335.064H323.398L348.159 50.8717C348.635 50.0784 348.874 49.125 348.874 48.093C348.874 44.841 346.255 42.221 343.002 42.221C339.747 42.221 337.128 44.841 337.128 48.093H326.016C326.016 45.7917 326.414 43.5704 327.287 41.5077C328.16 39.4437 329.431 37.6184 330.938 36.1104C332.526 34.5237 334.35 33.333 336.336 32.4597C338.478 31.5877 340.699 31.1104 343.002 31.1104C345.302 31.1104 347.524 31.5877 349.588 32.4597C351.651 33.333 353.478 34.5237 354.986 36.1104C356.571 37.6184 357.762 39.4437 358.635 41.5077C359.507 43.5704 359.984 45.7917 359.984 48.093C359.984 50.3957 359.507 52.6184 358.635 54.7597C358.159 55.9504 357.523 57.0624 356.81 58.093L344.587 75.3144Z" fill="white"/>
<path d="M387.379 31.1243V86.4216H376.272V42.2323H364.371V31.1243H385.792H387.379Z" fill="white"/>
<path d="M54.8473 31.1568C54.8473 31.1568 36.4393 29.5328 36.4393 46.8582C36.4393 66.7555 62.1567 61.7475 62.1567 70.1395C62.1567 74.3368 55.6593 73.6595 55.6593 73.6595V86.3821C55.6593 86.3821 75.1513 88.0075 75.1513 70.1395C75.1513 52.2728 49.0273 54.7088 49.0273 48.0755C49.0273 43.7448 54.8473 44.4221 54.8473 44.4221V31.1568Z" fill="white"/>
<path d="M12.1467 12.1467H411.588V105.413H12.1467V12.1467ZM411.587 9.15527e-05H0V117.545H411.587H423.733V9.15527e-05H411.587Z" fill="white"/>
</svg>

<svg xmlns="http://www.w3.org/2000/svg" width="424" height="118" fill="none"><path fill="#fff" d="M102.797 44.379V86.42H89.521V44.38H75.138V31.1h42.043V44.38h-14.384ZM168.851 31.118v31.905c0 14.804-13.019 23.399-23.739 23.399-9.869 0-23.567-7.914-23.567-23.568V31.118h12.336v31.736c0 3.402 1.192 6.125 3.659 8.168 2.468 2.125 5.616 3.062 7.572 3.062 1.192 0 2.553-.34 3.829-.766 1.447-.595 2.892-1.36 3.999-2.383 1.105-1.02 2.041-2.125 2.637-3.401.682-1.363.936-2.81.936-4.511V31.118h12.338ZM221.889 58.771c0 15.234-12.425 27.658-27.659 27.658h-21.018V31.114h21.018c15.234 0 27.659 12.34 27.659 27.657Zm-12.765 0c0-4-1.532-7.744-4.34-10.637-2.808-2.808-6.638-4.34-10.638-4.34h-7.658v29.87h7.742c4.002 0 7.746-1.531 10.554-4.34 2.808-2.807 4.34-6.553 4.34-10.553ZM239.548 86.412h-13.272V31.107h13.272v55.305ZM299.213 58.77c0 15.27-12.381 27.65-27.65 27.65-15.27 0-27.652-12.38-27.652-27.65 0-15.27 12.382-27.65 27.652-27.65 15.269 0 27.65 12.38 27.65 27.65Zm-11.554 0c0-4.292-1.651-8.336-4.706-11.39-3.053-3.054-7.098-4.705-11.39-4.705-4.292 0-8.338 1.651-11.391 4.704-3.053 3.055-4.705 7.099-4.705 11.391s1.652 8.337 4.705 11.39c3.053 2.971 7.099 4.705 11.391 4.705s8.337-1.734 11.39-4.704c3.055-3.054 4.706-7.099 4.706-11.391ZM344.587 75.314h15.159v11.111h-36.348l24.761-35.553c.476-.794.715-1.747.715-2.779a5.86 5.86 0 0 0-5.872-5.872 5.86 5.86 0 0 0-5.874 5.872h-11.112c0-2.301.398-4.523 1.271-6.585a17.071 17.071 0 0 1 3.651-5.398c1.588-1.586 3.412-2.777 5.398-3.65 2.142-.872 4.363-1.35 6.666-1.35 2.3 0 4.522.478 6.586 1.35 2.063.873 3.89 2.064 5.398 3.65 1.585 1.508 2.776 3.334 3.649 5.398a16.864 16.864 0 0 1 1.349 6.585c0 2.303-.477 4.525-1.349 6.667-.476 1.19-1.112 2.302-1.825 3.333l-12.223 17.221ZM387.379 31.124v55.298h-11.107v-44.19h-11.901V31.124h23.008ZM54.847 31.157S36.44 29.533 36.44 46.858c0 19.898 25.718 14.89 25.718 23.282 0 4.197-6.498 3.52-6.498 3.52v12.722s19.492 1.625 19.492-16.243c0-17.866-26.124-15.43-26.124-22.063 0-4.331 5.82-3.654 5.82-3.654V31.157Z"/><path fill="#fff" d="M12.147 12.147h399.441v93.266H12.147V12.147ZM411.587 0H0v117.545h423.733V0h-12.146Z"/></svg>
